X:34
T:Ravenscrofts Maggot
B:Walsh
M:3/2
L:1/8
N:
K:E
E4 G2 B2 dgbg| edcB AGFE ^D2 B,2|E4 G2 B2 dgbg| egfg Bedf e4::\
dgbg edcB _c2 A2| _ceag fed^c B2 G2| Bdgf edef gaba |gfea fedf e4::\
B2 E2 c2 ^D2 B2 E2|cBAG FGEF ^D2 B,2|EGFA GBAB cBAG|FGEF G,2 ^D2 E4::\
e2 E2 _F2 E2 c2 E2| bfge fdeB _c2 B2| e2 E2 _F2 E2 _c2 F2| cBcA GEGB e4:|
